svg/store_marker.svg

<svg xmlns="http://www.w3.org/2000/svg" viewBox="0 0 24 24"><path d="M20 6H4V4h16zm-7 9.5c0 1.14.43 2.36 1 3.5v1H4v-6H3v-2l1-5h16l.7 3.5c-.7-.32-1.42-.5-2.2-.5-3 0-5.5 2.5-5.5 5.5M12 14H6v4h6zm10 1.5c0 2.6-3.5 6.5-3.5 6.5S15 18.1 15 15.5c0-1.9 1.6-3.5 3.5-3.5s3.5 1.6 3.5 3.5m-2.3.1c0-.6-.6-1.2-1.2-1.2s-1.2.5-1.2 1.2c0 .6.5 1.2 1.2 1.2s1.3-.6 1.2-1.2"/></svg>

<svg xmlns="http://www.w3.org/2000/svg" id="mdi-store-marker" viewBox="0 0 24 24"><path d="M20 6H4V4H20V6M13 15.5C13 16.64 13.43 17.86 14 19V20H4V14H3V12L4 7H20L20.7 10.5C20 10.18 19.28 10 18.5 10C15.5 10 13 12.5 13 15.5M12 14H6V18H12V14M22 15.5C22 18.1 18.5 22 18.5 22S15 18.1 15 15.5C15 13.6 16.6 12 18.5 12S22 13.6 22 15.5M19.7 15.6C19.7 15 19.1 14.4 18.5 14.4S17.3 14.9 17.3 15.6C17.3 16.2 17.8 16.8 18.5 16.8S19.8 16.2 19.7 15.6Z" /></svg>
